src/actions/22/document-replace.svg

<svg version="1.1" viewBox="0 0 22 22" xmlns="http://www.w3.org/2000/svg">
 <defs>
  <style id="current-color-scheme" type="text/css">.ColorScheme-Text {
                color:#363636;
            }
            .ColorScheme-NegativeText {
                color:#da4453;
            }</style>
 </defs>
 <path class="ColorScheme-NegativeText" d="M 16.707,15 16,15.707 17.793,17.5 16,19.293 16.707,20 18.5,18.207 20.293,20 21,19.293 19.207,17.5 21,15.707 20.293,15 18.5,16.793 Z" fill="currentColor"/>
 <path class="ColorScheme-Text" d="m4 2c-1.662 0-3 1.338-3 3v10c0 1.662 1.338 3 3 3h8c1.662 0 3-1.338 3-3v-8l-5-5h-1zm0 1h5v5h5v7c0 1.108-0.892 2-2 2h-8c-1.108 0-2-0.892-2-2v-10c0-1.108 0.892-2 2-2zm6 0.41406 3.5859 3.5859h-3.5859z" fill="currentColor"/>
 <path class="ColorScheme-Text" d="m12 4 1 1h2v2 3h5v3 1h1v-1-4l-5-5h-1-3zm4 1.4141 3.5859 3.5859h-3.5859v-3.5859zm-8.8262 12.586c0.41051 1.1666 1.5157 2 2.8262 2h4 1v-1h-1-4c-0.74277 0-1.3874-0.40192-1.7324-1h-0.26758-0.82617z" color="#363636" fill="#da4453"/>
</svg>

<svg xmlns="http://www.w3.org/2000/svg" viewBox="0 0 22 22">
    <defs>
        <style id="current-color-scheme" type="text/css">
            .ColorScheme-Text{color:#050505;opacity:.7}
        </style>
    </defs>
    <path fill="currentColor" d="m16.707 15-.707.707 1.793 1.793L16 19.293l.707.707 1.793-1.793L20.293 20l.707-.707-1.793-1.793L21 15.707 20.293 15 18.5 16.793Z" style="color:#d98c8c"/>
    <path fill="currentColor" d="M4 2C2.338 2 1 3.338 1 5v10c0 1.662 1.338 3 3 3h8c1.662 0 3-1.338 3-3V7l-5-5H9zm0 1h5v5h5v7c0 1.108-.892 2-2 2H4c-1.108 0-2-.892-2-2V5c0-1.108.892-2 2-2zm6 .414L13.586 7H10z" class="ColorScheme-Text"/>
    <path fill="#d98c8c" d="m12 4 1 1h2v5h5v4h1V9l-5-5h-4zm4 1.414L19.586 9H16V5.414zM7.174 18A2.99 2.99 0 0 0 10 20h5v-1h-5a1.995 1.995 0 0 1-1.732-1H7.174z" class="ColorScheme-Text" color="#050505"/>
</svg>
